X:414
T: Xiaobiandan
N: C2032
O: China, Jiangsu Huaizhong
S: III, 468, 2)]
R: Xiaodiao]
M: 2/4
L: 1/16
K: F
d3cA4 | d3cA4 | G2AcdcAF | G2AcG4
A3cd2f2 | AcAGF2D2 | F2GAF2C2D4
FDFGD4 | c2A2c2A2 | FGAcG4 | F2GAF2C2 | D4FDFG | D8

